X:4814
T:Old Robin Adair
O:england
M:3/4
L:1/4
S:Armitt MS
N:Bars 3, 7 and 15 - it  is possible they are all supposed to be the same
N:as Bar 3, getting progressively more inaccurately written.  There is an
N:A flat, in second space up, at the begining of bar 9.  Could be a
N:repeated key signature indicating a written source.
K:F major
cde|f>ga|L:1/32c3f2 d2f3 e2g3|L:1/4f2c|cde|f>ga|L:1/32c2f3 d2f6 e2g6|L:1
/4f2 z|aaa|c'>cc|aa/2c'/2(bge)|f>dc|c' b/2a/2 g/2f/2|f>g" pause"a b/2g/
2a/2b/2g/2e/2|L:1/8c<f d<f eg|f4:||


